X:1
T:Partition sans titre
C:Compositeur / Arrangeur
L:1/8
M:4/4
I:linebreak $
K:D
V:1 treble nm="Violon" snm="Vln."
V:1
"A" e2 Pc2 A2 c2 | eAef eABc |"G" ddBg G2 B2 | dcde Pddcd |"A" e2 Pc2 A2 c2 | eAef eABc | %6
"G" ddBg G2 B2 |1 A2 ce"A" A3 c :|2 A2 ce"A" A3 A |:"A" A2 c2 e3 e | edef e2 Pc2 | PB2 A2"D" FADF | %12
 ADFA dFAd |"A" eAef e3 e |1 edef e2 Pc2 | PB2 A2"Em" B3 B | B2 c2 B2 GB :|2 e2 c2"Em" BgGB | %18
 c2 B2"A" A3 B | cAce a3 c |] %20
